www/static/icons/python.svg

<svg width="50" height="50" viewBox="0 0 50 50" fill="none" xmlns="http://www.w3.org/2000/svg">
<rect width="50" height="50" rx="6" fill="white"/>
<path d="M24.5687 6.00031C23.0189 6.00751 21.5389 6.13969 20.2366 6.37012C16.4003 7.04787 15.7038 8.46644 15.7038 11.0825V14.5376H24.7694V15.6893H15.7038H12.3016C9.66684 15.6893 7.35981 17.2729 6.6382 20.2855C5.80583 23.7386 5.76891 25.8934 6.6382 29.4991C7.28261 32.1829 8.82157 34.0953 11.4563 34.0953H14.5732V29.9534C14.5732 26.9611 17.1622 24.3217 20.2366 24.3217H29.2917C31.8123 24.3217 33.8245 22.2463 33.8245 19.715V11.0825C33.8245 8.62572 31.7519 6.78016 29.2917 6.37012C27.7343 6.11088 26.1185 5.99311 24.5687 6.00031ZM19.6661 8.77916C20.6025 8.77916 21.3672 9.55636 21.3672 10.512C21.3672 11.4642 20.6025 12.2342 19.6661 12.2342C18.7263 12.2342 17.9649 11.4642 17.9649 10.512C17.9649 9.55636 18.7263 8.77916 19.6661 8.77916Z" fill="url(#paint0_linear)"/>
<path d="M34.9551 15.6893V19.715C34.9551 22.836 32.3091 25.4629 29.2917 25.4629H20.2367C17.7563 25.4629 15.7039 27.5857 15.7039 30.0696V38.702C15.7039 41.1589 17.8402 42.6039 20.2367 43.3088C23.1063 44.1526 25.8582 44.3051 29.2917 43.3088C31.574 42.648 33.8245 41.3181 33.8245 38.702V35.247H24.7695V34.0953H33.8245H38.3573C40.992 34.0953 41.9738 32.2575 42.8901 29.4991C43.8366 26.6593 43.7963 23.9284 42.8901 20.2855C42.239 17.6627 40.9954 15.6893 38.3573 15.6893H34.9551ZM29.8623 37.5503C30.802 37.5503 31.5634 38.3204 31.5634 39.2726C31.5634 40.2282 30.802 41.0054 29.8623 41.0054C28.9259 41.0054 28.1611 40.2282 28.1611 39.2726C28.1612 38.3204 28.9259 37.5503 29.8623 37.5503Z" fill="url(#paint1_linear)"/>
<defs>
<linearGradient id="paint0_linear" x1="6" y1="6" x2="26.9043" y2="23.8134" gradientUnits="userSpaceOnUse">
<stop stop-color="#5A9FD4"/>
<stop offset="1" stop-color="#306998"/>
</linearGradient>
<linearGradient id="paint1_linear" x1="29.6444" y1="38.9821" x2="22.1447" y2="28.4728" gradientUnits="userSpaceOnUse">
<stop stop-color="#FFD43B"/>
<stop offset="1" stop-color="#FFE873"/>
</linearGradient>
</defs>
</svg>

<svg width="50" height="50" fill="none" xmlns="http://www.w3.org/2000/svg"><rect width="50" height="50" rx="6" fill="#fff"/><path d="M24.569 6c-1.55.008-3.03.14-4.332.37-3.837.678-4.533 2.096-4.533 4.712v3.456h9.065v1.151H12.302c-2.635 0-4.942 1.584-5.664 4.596-.832 3.454-.87 5.608 0 9.214.645 2.684 2.184 4.596 4.818 4.596h3.117v-4.142c0-2.992 2.59-5.631 5.664-5.631h9.055c2.52 0 4.532-2.076 4.532-4.607v-8.633c0-2.456-2.072-4.302-4.532-4.712A28.276 28.276 0 0024.569 6zm-4.903 2.78c.936 0 1.701.776 1.701 1.732 0 .952-.765 1.722-1.7 1.722-.94 0-1.702-.77-1.702-1.722 0-.956.761-1.733 1.701-1.733z" fill="url(#paint0_linear)"/><path d="M34.955 15.69v4.025c0 3.121-2.646 5.748-5.663 5.748h-9.055c-2.48 0-4.533 2.123-4.533 4.607v8.632c0 2.457 2.136 3.902 4.533 4.607 2.87.844 5.621.996 9.055 0 2.282-.661 4.532-1.99 4.532-4.607v-3.455H24.77v-1.152h13.587c2.635 0 3.617-1.837 4.533-4.596.947-2.84.906-5.57 0-9.213-.651-2.623-1.895-4.597-4.533-4.597h-3.402zm-5.093 21.86c.94 0 1.701.77 1.701 1.723 0 .955-.761 1.732-1.7 1.732-.937 0-1.702-.777-1.702-1.732 0-.953.765-1.723 1.701-1.723z" fill="url(#paint1_linear)"/><defs><linearGradient id="paint0_linear" x1="6" y1="6" x2="26.904" y2="23.813" gradientUnits="userSpaceOnUse"><stop stop-color="#5A9FD4"/><stop offset="1" stop-color="#306998"/></linearGradient><linearGradient id="paint1_linear" x1="29.644" y1="38.982" x2="22.145" y2="28.473" gradientUnits="userSpaceOnUse"><stop stop-color="#FFD43B"/><stop offset="1" stop-color="#FFE873"/></linearGradient></defs></svg>
